X:40
T:The Warrior o' Persie
C: J. Scott Skinner
R: air, strathspey
M:C
L:1/8
Z: Jason R. Fruit <jason@gmail.com>
K:D
"^1st Slow Air""^2nd Accented Style. - Slow and Bold Strathspey\n"A, | {C}[DD]2 FD A,DFD | G/A/B/c/ dD CE E>F | {C}[DD]2F>D B,D .G,.B | A/B/c/d/ A/F/G/E/ FD[DA,] :|
g | {DA}f>gaf .d.A.F.D | g>abg .e.B.G.E | f>ga.f .d.A.F.D | C/D/E/F/ G/E/A/G/ FD[DA,]g |
{DA}f>gaf .d.A.F.D | {G,B}g>abg .e.B.G.E | {C}[DD]2 F>D .B,.D .G,.B | A/B/c/d/ A/F/G/E/ FD[DA,] ||
"^Var. to 2nd Strain only"!>!g | f/g/a/g/ f/e/d/c/ d/f/A/d/ F/A/D/f/ | !>!g/a/b/a/ g/f/e/^d/ e/g/B/e/ G/B/E/g/ |  f/g/a/g/ f/e/d/c/ d/f/A/d/ F/A/ D/!tenuto!d/ |  C/D/E/F/ G/E/A/G/ FD[DA,]g |
!>!f/g/a/g/ f/e/d/c/ d/f/A/d/ F/A/D/f/ | !>!g/a/b/a/ g/f/e/^d/ e/g/B/e/ G/B/E/g/ & x7 E/C/ | {C}[DD]2 F>D B,D G,!fermata!B | A/B/c/d/ a/f/g/e/ fdd |]